(Block-name: Header)
(Block-expand: 0)
(Block-enable: 1)
(G-CODE GENERATED BY FLATCAM v8.991 - www.flatcam.org - Version Date: 2019/12/27)

(Name: simple80)
(Type: G-code from Geometry)
(Units: MM)

(Created on it-Tlieta, 14 April 2020 at 20:41)

(TOOL DIAMETER: 0.1 mm)
(Feedrate: 120.0 mm/min)
(Feedrate_Z: 60.0 mm/min)
(Feedrate rapids 1500.0 mm/min)

(Z_Cut: -2.4 mm)
(Z_Move: 2.0 mm)
(Z Toolchange: 15.0 mm)
(X,Y Toolchange: 0.0000, 0.0000 mm)
(Z Start: None mm)
(Z End: 15.0 mm)
(Steps per circle: 64)
(Preprocessor Geometry: default)

(X range:  105.5647 ...  181.4450  mm)
(Y range: -157.8353 ...  -64.3550  mm)

(Spindle Speed: None RPM)
G21
G90
G94




G01 F120.00
G0 Z2
(Block-name: block)
(Block-expand: 0)
(Block-enable: 1)

M03
G0 X1.1597 Y-24.5652
G01 F60.00
G1 Z-2.4
G01 F120.00
G1 X1.1597 Y-30.2802
G1 X1.1622 Y-30.3317
G1 X1.1699 Y-30.3851
G1 X1.1828 Y-30.4376
G1 X1.2008 Y-30.4885
G1 X1.2259 Y-30.5417
G1 X1.2539 Y-30.5879
G1 X1.2848 Y-30.6294
G1 X1.2848 Y-34.7252
G1 X1.2867 Y-34.7644
G1 X1.2926 Y-34.8057
G1 X1.3039 Y-34.851
G1 X1.3163 Y-34.8856
G1 X1.3339 Y-34.9234
G1 X1.3579 Y-34.9634
G1 X1.3798 Y-34.993
G1 X1.4077 Y-35.0241
G1 X1.4422 Y-35.0554
G1 X1.4718 Y-35.0773
G1 X1.5074 Y-35.099
G1 X1.5496 Y-35.1189
G1 X1.5842 Y-35.1313
G1 X1.6247 Y-35.1417
G1 X1.6708 Y-35.1485
G1 X1.71 Y-35.1504
G1 X4.5359 Y-35.1504
G1 X4.5548 Y-35.1693
G1 X4.5548 Y-55.5849
G1 X2.919 Y-55.5849
G1 X2.8675 Y-55.5874
G1 X2.8141 Y-55.5951
G1 X2.7616 Y-55.608
G1 X2.7062 Y-55.6278
G1 X2.6618 Y-55.6488
G1 X2.6154 Y-55.6764
G1 X2.5719 Y-55.7083
G1 X2.5317 Y-55.7444
G1 X1.7742 Y-56.5019
G1 X1.7381 Y-56.5421
G1 X1.7062 Y-56.5856
G1 X1.6786 Y-56.632
G1 X1.6558 Y-56.6809
G1 X1.6392 Y-56.7271
G1 X1.6259 Y-56.7795
G1 X1.6177 Y-56.8328
G1 X1.6148 Y-56.8867
G1 X1.6148 Y-58.2837
G1 X1.6172 Y-58.3327
G1 X1.6249 Y-58.3861
G1 X1.6378 Y-58.4386
G1 X1.6558 Y-58.4895
G1 X1.6786 Y-58.5384
G1 X1.7062 Y-58.5848
G1 X1.7381 Y-58.6283
G1 X1.7742 Y-58.6685
G1 X4.3047 Y-61.1991
G1 X4.3047 Y-91.2292
G1 X4.3072 Y-91.2807
G1 X4.3149 Y-91.3341
G1 X4.3278 Y-91.3866
G1 X4.3476 Y-91.442
G1 X4.3686 Y-91.4864
G1 X4.3962 Y-91.5328
G1 X4.4281 Y-91.5763
G1 X4.4642 Y-91.6165
G1 X6.0937 Y-93.246
G1 X6.1339 Y-93.2821
G1 X6.1774 Y-93.314
G1 X6.2238 Y-93.3416
G1 X6.2727 Y-93.3645
G1 X6.3236 Y-93.3824
G1 X6.3761 Y-93.3953
G1 X6.4295 Y-93.403
G1 X6.481 Y-93.4055
G1 X39.0559 Y-93.4055
G1 X39.0611 Y-93.409
G1 X39.1075 Y-93.4366
G1 X39.1564 Y-93.4595
G1 X39.2027 Y-93.476
G1 X39.2598 Y-93.4903
G1 X39.3132 Y-93.498
G1 X39.3647 Y-93.5005
G1 X42.7977 Y-93.5004
G1 X42.8468 Y-93.498
G1 X42.9002 Y-93.4903
G1 X42.9573 Y-93.476
G1 X43.0036 Y-93.4595
G1 X43.0525 Y-93.4366
G1 X43.0989 Y-93.409
G1 X43.1041 Y-93.4055
G1 X71.85 Y-93.4055
G1 X71.9015 Y-93.403
G1 X71.9549 Y-93.3953
G1 X72.0074 Y-93.3824
G1 X72.0583 Y-93.3645
G1 X72.1072 Y-93.3416
G1 X72.1536 Y-93.314
G1 X72.2009 Y-93.279
G1 X72.2391 Y-93.2443
G1 X73.4958 Y-91.9875
G1 X73.5319 Y-91.9473
G1 X73.5639 Y-91.9038
G1 X73.5914 Y-91.8574
G1 X73.6143 Y-91.8085
G1 X73.6322 Y-91.7575
G1 X73.6451 Y-91.7051
G1 X73.6528 Y-91.6517
G1 X73.6553 Y-91.6002
G1 X73.6553 Y-24.2052
G1 X73.6528 Y-24.1537
G1 X73.6451 Y-24.1003
G1 X73.6322 Y-24.0479
G1 X73.6124 Y-23.9924
G1 X73.5914 Y-23.948
G1 X73.5639 Y-23.9016
G1 X73.5319 Y-23.8581
G1 X73.4958 Y-23.8179
G1 X71.6276 Y-21.9496
G1 X71.6305 Y-21.9428
G1 X71.6768 Y-21.8134
G1 X71.7116 Y-21.6755
G1 X71.7327 Y-21.5348
G1 X71.7399 Y-21.3877
G1 X71.7327 Y-21.2456
G1 X71.7116 Y-21.1049
G1 X71.6768 Y-20.967
G1 X71.6305 Y-20.8376
G1 X71.6276 Y-20.8308
G1 X72.0791 Y-20.3793
G1 X72.1169 Y-20.3373
G1 X72.1488 Y-20.2938
G1 X72.1764 Y-20.2474
G1 X72.1974 Y-20.203
G1 X72.2172 Y-20.1476
G1 X72.2301 Y-20.0951
G1 X72.2373 Y-20.0466
G1 X72.2402 Y-19.9902
G1 X72.2402 Y-18.2436
G1 X72.2373 Y-18.1897
G1 X72.2301 Y-18.1411
G1 X72.2172 Y-18.0887
G1 X72.1974 Y-18.0332
G1 X72.1764 Y-17.9888
G1 X72.1488 Y-17.9424
G1 X72.1169 Y-17.8989
G1 X72.0791 Y-17.8569
G1 X66.0073 Y-11.7852
G1 X69.6723 Y-8.1202
G1 X70.94 Y-8.1202
G1 X71.0405 Y-8.1153
G1 X71.1424 Y-8.1004
G1 X71.2471 Y-8.0742
G1 X71.3395 Y-8.0412
G1 X71.4328 Y-7.9973
G1 X71.5254 Y-7.9418
G1 X71.6042 Y-7.8834
G1 X71.6807 Y-7.8144
G1 X71.7501 Y-7.7382
G1 X71.8116 Y-7.6556
G1 X71.8648 Y-7.5673
G1 X71.9091 Y-7.4743
G1 X71.944 Y-7.3773
G1 X71.9693 Y-7.2774
G1 X71.9846 Y-7.1756
G1 X71.9899 Y-7.0727
G1 X71.9851 Y-6.9697
G1 X71.9702 Y-6.8678
G1 X71.9454 Y-6.7678
G1 X71.911 Y-6.6707
G1 X71.8671 Y-6.5774
G1 X71.8144 Y-6.4889
G1 X71.7532 Y-6.406
G1 X71.6807 Y-6.326
G1 X71.6042 Y-6.257
G1 X71.5213 Y-6.1958
G1 X71.4328 Y-6.1431
G1 X71.3395 Y-6.0992
G1 X71.2424 Y-6.0648
G1 X71.1424 Y-6.04
G1 X71.0454 Y-6.0256
G1 X70.9425 Y-6.0203
G1 X69.64 Y-6.0202
G1 X69.5395 Y-6.0251
G1 X69.4328 Y-6.0409
G1 X69.3329 Y-6.0662
G1 X69.2405 Y-6.0992
G1 X69.1472 Y-6.1431
G1 X69.0546 Y-6.1986
G1 X68.972 Y-6.2601
G1 X68.8958 Y-6.3295
G1 X68.8268 Y-6.406
G1 X68.7684 Y-6.4848
G1 X68.7152 Y-6.5731
G1 X68.6709 Y-6.6661
G1 X68.6346 Y-6.7678
G1 X68.6098 Y-6.8678
G1 X68.5949 Y-6.9697
G1 X68.5901 Y-7.0727
G1 X68.5949 Y-7.1707
G1 X68.6098 Y-7.2726
G1 X68.6346 Y-7.3726
G1 X68.669 Y-7.4697
G1 X68.7001 Y-7.5361
G1 X65.0013 Y-11.2349
G1 X56.4584 Y-11.2349
G1 X56.8865 Y-10.8069
G1 X56.9575 Y-10.8101
G1 X57.0408 Y-10.8058
G1 X57.1232 Y-10.7933
G1 X57.2041 Y-10.7728
G1 X57.2825 Y-10.7445
G1 X57.3578 Y-10.7086
G1 X57.4292 Y-10.6655
G1 X57.4961 Y-10.6157
G1 X57.5577 Y-10.5595
G1 X57.6105 Y-10.5013
G1 X57.6631 Y-10.4304
G1 X57.7057 Y-10.3587
G1 X57.7412 Y-10.2832
G1 X57.7676 Y-10.2093
G1 X57.7881 Y-10.1284
G1 X57.8006 Y-10.046
G1 X57.8049 Y-9.9577
G1 X57.8006 Y-9.8744
G1 X57.7881 Y-9.792
G1 X57.7676 Y-9.7111
G1 X57.7393 Y-9.6327
G1 X57.7057 Y-9.5617
G1 X57.6631 Y-9.49
G1 X57.6136 Y-9.4229
G1 X57.5543 Y-9.3575
G1 X57.4923 Y-9.3016
G1 X57.4252 Y-9.2521
G1 X57.3535 Y-9.2095
G1 X57.2825 Y-9.1759
G1 X57.2041 Y-9.1476
G1 X57.1232 Y-9.1271
G1 X57.0408 Y-9.1146
G1 X56.9525 Y-9.1103
G1 X56.8692 Y-9.1146
G1 X56.7868 Y-9.1271
G1 X56.7059 Y-9.1476
G1 X56.6275 Y-9.1759
G1 X56.5522 Y-9.2118
G1 X56.4808 Y-9.2549
G1 X56.4139 Y-9.3047
G1 X56.3523 Y-9.3609
G1 X56.2964 Y-9.4229
G1 X56.2469 Y-9.49
G1 X56.2043 Y-9.5617
G1 X56.1688 Y-9.6372
G1 X56.1409 Y-9.7158
G1 X56.1209 Y-9.7968
G1 X56.1089 Y-9.8793
G1 X56.1051 Y-9.9577
G1 X56.1083 Y-10.0287
G1 X54.9021 Y-11.2349
G1 X46.418 Y-11.2349
G1 X46.3966 Y-11.1998
G1 X46.3382 Y-11.121
G1 X46.2657 Y-11.041
G1 X46.1892 Y-10.972
G1 X46.1104 Y-10.9136
G1 X46.0178 Y-10.8581
G1 X45.9245 Y-10.8142
G1 X45.8321 Y-10.7812
G1 X45.7322 Y-10.7559
G1 X45.6255 Y-10.7401
G1 X45.5225 Y-10.7353
G1 X45.4245 Y-10.7401
G1 X45.3226 Y-10.755
G1 X45.2226 Y-10.7798
G1 X45.1209 Y-10.8161
G1 X45.0279 Y-10.8604
G1 X44.9396 Y-10.9136
G1 X44.857 Y-10.9751
G1 X44.7808 Y-11.0445
G1 X44.7118 Y-11.121
G1 X44.6506 Y-11.2039
G1 X44.5979 Y-11.2924
G1 X44.5559 Y-11.3811
G1 X44.521 Y-11.4781
G1 X44.4957 Y-11.578
G1 X44.4804 Y-11.6798
G1 X44.4751 Y-11.7827
G1 X44.4799 Y-11.8857
G1 X44.4948 Y-11.9876
G1 X44.5196 Y-12.0876
G1 X44.554 Y-12.1847
G1 X44.5979 Y-12.278
G1 X44.6506 Y-12.3665
G1 X44.7118 Y-12.4494
G1 X44.7808 Y-12.5259
G1 X44.857 Y-12.5953
G1 X44.9396 Y-12.6568
G1 X45.0279 Y-12.71
G1 X45.1209 Y-12.7543
G1 X45.2179 Y-12.7892
G1 X45.3178 Y-12.8145
G1 X45.4196 Y-12.8298
G1 X45.5225 Y-12.8351
G1 X45.6304 Y-12.8298
G1 X45.7274 Y-12.8154
G1 X45.8274 Y-12.7906
G1 X45.9245 Y-12.7562
G1 X46.0221 Y-12.71
G1 X46.1104 Y-12.6568
G1 X46.1892 Y-12.5984
G1 X46.2657 Y-12.5294
G1 X46.3382 Y-12.4494
G1 X46.3966 Y-12.3706
G1 X46.418 Y-12.3355
G1 X65.0013 Y-12.3355
G1 X71.1397 Y-18.4739
G1 X71.1397 Y-19.7623
G1 X70.8494 Y-20.0526
G1 X70.8426 Y-20.0497
G1 X70.7132 Y-20.0034
G1 X70.5705 Y-19.9676
G1 X70.4346 Y-19.9475
G1 X70.2925 Y-19.9403
G1 X70.1503 Y-19.947
G1 X70.0047 Y-19.9686
G1 X69.8668 Y-20.0034
G1 X69.7374 Y-20.0497
G1 X69.6087 Y-20.1103
G1 X69.4824 Y-20.186
G1 X69.3721 Y-20.2678
G1 X69.2665 Y-20.3632
G1 X69.1707 Y-20.4685
G1 X69.0858 Y-20.5826
G1 X69.0101 Y-20.7089
G1 X68.9495 Y-20.8376
G1 X68.9032 Y-20.967
G1 X68.8684 Y-21.1049
G1 X68.8473 Y-21.2456
G1 X68.8401 Y-21.3927
G1 X68.8473 Y-21.5348
G1 X68.8684 Y-21.6755
G1 X68.9032 Y-21.8134
G1 X68.9495 Y-21.9428
G1 X69.0101 Y-22.0715
G1 X69.0858 Y-22.1978
G1 X69.1707 Y-22.3119
G1 X69.2665 Y-22.4172
G1 X69.3721 Y-22.5126
G1 X69.4824 Y-22.5944
G1 X69.6043 Y-22.6678
G1 X69.7329 Y-22.7288
G1 X69.8715 Y-22.7784
G1 X70.0095 Y-22.8128
G1 X70.1454 Y-22.8329
G1 X70.2925 Y-22.8401
G1 X70.4346 Y-22.8329
G1 X70.5705 Y-22.8128
G1 X70.7132 Y-22.777
G1 X70.8426 Y-22.7307
G1 X70.8494 Y-22.7278
G1 X72.5548 Y-24.4332
G1 X72.5548 Y-91.3722
G1 X71.6221 Y-92.305
G1 X42.8903 Y-92.305
G1 X42.8388 Y-92.3074
G1 X42.7854 Y-92.3151
G1 X42.7282 Y-92.3294
G1 X42.682 Y-92.346
G1 X42.6331 Y-92.3688
G1 X42.5867 Y-92.3964
G1 X42.5814 Y-92.4
G1 X39.5786 Y-92.4
G1 X39.5733 Y-92.3964
G1 X39.5269 Y-92.3688
G1 X39.478 Y-92.346
G1 X39.4318 Y-92.3294
G1 X39.3746 Y-92.3151
G1 X39.3212 Y-92.3074
G1 X39.2697 Y-92.305
G1 X6.7089 Y-92.305
G1 X5.4052 Y-91.0013
G1 X5.4052 Y-60.9712
G1 X5.4023 Y-60.9148
G1 X5.3941 Y-60.8615
G1 X5.3808 Y-60.8091
G1 X5.3624 Y-60.7584
G1 X5.3391 Y-60.7097
G1 X5.3111 Y-60.6635
G1 X5.2787 Y-60.6203
G1 X5.2458 Y-60.5839
G1 X5.2124 Y-60.5504
G1 X5.6641 Y-60.5504
G1 X5.6972 Y-60.5865
G1 X5.7446 Y-60.6292
G1 X5.796 Y-60.667
G1 X5.8508 Y-60.6996
G1 X5.9085 Y-60.7266
G1 X5.964 Y-60.7464
G1 X6.0258 Y-60.7622
G1 X6.0889 Y-60.7718
G1 X6.1575 Y-60.7751
G1 X6.2211 Y-60.7718
G1 X6.2794 Y-60.7631
G1 X6.346 Y-60.7464
G1 X6.4015 Y-60.7266
G1 X6.4592 Y-60.6996
G1 X6.5181 Y-60.6642
G1 X6.5692 Y-60.6261
G1 X6.6128 Y-60.5865
G1 X6.659 Y-60.5356
G1 X6.694 Y-60.4883
G1 X6.727 Y-60.4337
G1 X6.7564 Y-60.3717
G1 X6.7762 Y-60.3162
G1 X6.792 Y-60.2544
G1 X6.8021 Y-60.1865
G1 X6.8049 Y-60.1277
G1 X6.8028 Y-60.0787
G1 X7.5061 Y-59.3754
G1 X9.0829 Y-59.3754
G1 X9.5983 Y-59.8908
G1 X9.6312 Y-59.9204
G1 X9.6608 Y-59.9423
G1 X9.6964 Y-59.9639
G1 X9.7386 Y-59.9839
G1 X9.7732 Y-59.9963
G1 X9.8136 Y-60.0067
G1 X9.8549 Y-60.013
G1 X9.8685 Y-60.0139
G1 X10.2804 Y-60.4259
G1 X10.3132 Y-60.4554
G1 X10.3428 Y-60.4773
G1 X10.3785 Y-60.499
G1 X10.4206 Y-60.5189
G1 X10.46 Y-60.5327
G1 X10.5005 Y-60.5426
G1 X10.5369 Y-60.548
G1 X10.581 Y-60.5504
G1 X20.9041 Y-60.5504
G1 X20.9372 Y-60.5865
G1 X20.9808 Y-60.6261
G1 X21.0319 Y-60.6642
G1 X21.0865 Y-60.6972
G1 X21.144 Y-60.7247
G1 X21.204 Y-60.7464
G1 X21.2658 Y-60.7622
G1 X21.3289 Y-60.7718
G1 X21.3925 Y-60.7751
G1 X21.4563 Y-60.7723
G1 X21.5194 Y-60.7631
G1 X21.5813 Y-60.7479
G1 X21.6415 Y-60.7266
G1 X21.6992 Y-60.6996
G1 X21.7581 Y-60.6642
G1 X21.8092 Y-60.6261
G1 X21.8528 Y-60.5865
G1 X21.8859 Y-60.5504
G1 X21.9375 Y-60.5504
G1 X21.9767 Y-60.5485
G1 X22.0229 Y-60.5417
G1 X22.0633 Y-60.5313
G1 X22.0979 Y-60.5189
G1 X22.1358 Y-60.5013
G1 X22.1717 Y-60.48
G1 X22.2053 Y-60.4554
G1 X22.2382 Y-60.4259
G1 X23.0636 Y-59.6004
G1 X23.1935 Y-59.6004
G1 X23.2352 Y-59.5983
G1 X23.2789 Y-59.5917
G1 X23.317 Y-59.5821
G1 X23.3562 Y-59.568
G1 X23.3961 Y-59.549
G1 X23.4298 Y-59.5287
G1 X23.4633 Y-59.5039
G1 X23.4942 Y-59.4758
G1 X23.5946 Y-59.3754
G1 X31.4739 Y-59.3754
G1 X31.5761 Y-59.4775
G1 X31.6034 Y-59.5023
G1 X31.6368 Y-59.5273
G1 X31.6724 Y-59.549
G1 X31.71 Y-59.567
G1 X31.7492 Y-59.5813
G1 X31.755 Y-59.583
G1 X32.5979 Y-60.4259
G1 X32.6269 Y-60.4523
G1 X32.6603 Y-60.4773
G1 X32.7003 Y-60.5013
G1 X32.7381 Y-60.5189
G1 X32.7775 Y-60.5327
G1 X32.818 Y-60.5426
G1 X32.8544 Y-60.548
G1 X32.8985 Y-60.5504
G1 X36.1441 Y-60.5504
G1 X36.1772 Y-60.5865
G1 X36.2208 Y-60.6261
G1 X36.2719 Y-60.6642
G1 X36.3265 Y-60.6972
G1 X36.384 Y-60.7247
G1 X36.444 Y-60.7464
G1 X36.5058 Y-60.7622
G1 X36.5689 Y-60.7718
G1 X36.6325 Y-60.7751
G1 X36.6963 Y-60.7723
G1 X36.7594 Y-60.7631
G1 X36.8213 Y-60.7479
G1 X36.8815 Y-60.7266
G1 X36.9435 Y-60.6972
G1 X36.9981 Y-60.6642
G1 X37.0492 Y-60.6261
G1 X37.0963 Y-60.583
G1 X37.1359 Y-60.5394
G1 X37.174 Y-60.4883
G1 X37.207 Y-60.4337
G1 X37.2345 Y-60.3762
G1 X37.2562 Y-60.3162
G1 X37.272 Y-60.2544
G1 X37.2743 Y-60.2404
G1 X37.4876 Y-60.2404
G1 X37.5317 Y-60.238
G1 X37.5729 Y-60.2316
G1 X37.6133 Y-60.2213
G1 X37.6525 Y-60.207
G1 X37.6901 Y-60.1889
G1 X37.7258 Y-60.1673
G1 X37.7554 Y-60.1454
G1 X37.7882 Y-60.1158
G1 X38.3036 Y-59.6004
G1 X38.4335 Y-59.6004
G1 X38.4752 Y-59.5983
G1 X38.5189 Y-59.5917
G1 X38.557 Y-59.5821
G1 X38.5962 Y-59.568
G1 X38.6361 Y-59.549
G1 X38.6698 Y-59.5287
G1 X38.7033 Y-59.5039
G1 X38.7342 Y-59.4758
G1 X38.8346 Y-59.3754
G1 X45.5174 Y-59.3754
G1 X46.5696 Y-60.4275
G1 X46.6007 Y-60.4554
G1 X46.6303 Y-60.4773
G1 X46.666 Y-60.499
G1 X46.7081 Y-60.5189
G1 X46.7428 Y-60.5313
G1 X46.7832 Y-60.5417
G1 X46.8244 Y-60.548
G1 X46.8685 Y-60.5504
G1 X51.3841 Y-60.5504
G1 X51.4172 Y-60.5865
G1 X51.4608 Y-60.6261
G1 X51.5119 Y-60.6642
G1 X51.5665 Y-60.6972
G1 X51.624 Y-60.7247
G1 X51.684 Y-60.7464
G1 X51.7458 Y-60.7622
G1 X51.8089 Y-60.7718
G1 X51.8725 Y-60.7751
G1 X51.9411 Y-60.7718
G1 X51.9994 Y-60.7631
G1 X52.0613 Y-60.7479
G1 X52.126 Y-60.7247
G1 X52.1792 Y-60.6996
G1 X52.234 Y-60.667
G1 X52.2892 Y-60.6261
G1 X52.3363 Y-60.583
G1 X52.379 Y-60.5356
G1 X52.4168 Y-60.4842
G1 X52.4494 Y-60.4294
G1 X52.4764 Y-60.3717
G1 X52.4977 Y-60.3115
G1 X52.512 Y-60.2544
G1 X52.5143 Y-60.2404
G1 X52.7276 Y-60.2404
G1 X52.7717 Y-60.238
G1 X52.8129 Y-60.2316
G1 X52.8533 Y-60.2213
G1 X52.8925 Y-60.207
G1 X52.9301 Y-60.1889
G1 X52.9658 Y-60.1673
G1 X52.9954 Y-60.1454
G1 X53.0282 Y-60.1158
G1 X53.5436 Y-59.6004
G1 X53.676 Y-59.6003
G1 X53.7152 Y-59.5983
G1 X53.7541 Y-59.5926
G1 X53.7993 Y-59.5813
G1 X53.8362 Y-59.568
G1 X53.874 Y-59.5502
G1 X53.9118 Y-59.5273
G1 X53.9433 Y-59.5039
G1 X53.9724 Y-59.4775
G1 X54.1796 Y-59.2704
G1 X56.6219 Y-59.2704
G1 X57.6973 Y-60.3459
G1 X57.7264 Y-60.3723
G1 X57.7638 Y-60.4
G1 X57.7997 Y-60.4213
G1 X57.8375 Y-60.4389
G1 X57.8722 Y-60.4513
G1 X57.9126 Y-60.4617
G1 X57.9587 Y-60.4685
G1 X57.998 Y-60.4704
G1 X66.3741 Y-60.4704
G1 X66.4072 Y-60.5065
G1 X66.4546 Y-60.5492
G1 X66.5019 Y-60.5842
G1 X66.5565 Y-60.6172
G1 X66.6185 Y-60.6466
G1 X66.674 Y-60.6664
G1 X66.7358 Y-60.6822
G1 X66.7989 Y-60.6918
G1 X66.865 Y-60.6952
G1 X67.3675 Y-60.6951
G1 X67.4311 Y-60.6918
G1 X67.4942 Y-60.6822
G1 X67.556 Y-60.6664
G1 X67.616 Y-60.6447
G1 X67.6735 Y-60.6172
G1 X67.7281 Y-60.5842
G1 X67.7792 Y-60.5461
G1 X67.8263 Y-60.503
G1 X67.869 Y-60.4556
G1 X67.9068 Y-60.4042
G1 X67.9394 Y-60.3494
G1 X67.9664 Y-60.2917
G1 X67.9862 Y-60.2362
G1 X68.002 Y-60.1744
G1 X68.0116 Y-60.1113
G1 X68.0149 Y-60.0477
G1 X68.0121 Y-59.9839
G1 X68.0029 Y-59.9208
G1 X67.9877 Y-59.8589
G1 X67.9664 Y-59.7987
G1 X67.9394 Y-59.741
G1 X67.904 Y-59.6821
G1 X67.8659 Y-59.631
G1 X67.8228 Y-59.5839
G1 X67.7754 Y-59.5412
G1 X67.724 Y-59.5034
G1 X67.6692 Y-59.4708
G1 X67.616 Y-59.4457
G1 X67.556 Y-59.424
G1 X67.4942 Y-59.4082
G1 X67.4311 Y-59.3986
G1 X67.3675 Y-59.3953
G1 X66.865 Y-59.3952
G1 X66.7989 Y-59.3986
G1 X66.7358 Y-59.4082
G1 X66.674 Y-59.424
G1 X66.6185 Y-59.4438
G1 X66.5565 Y-59.4732
G1 X66.5019 Y-59.5062
G1 X66.4546 Y-59.5412
G1 X66.4072 Y-59.5839
G1 X66.3741 Y-59.62
G1 X58.1741 Y-59.62
G1 X57.0987 Y-58.5446
G1 X57.0696 Y-58.5182
G1 X57.0322 Y-58.4904
G1 X56.9962 Y-58.4692
G1 X56.9584 Y-58.4515
G1 X56.9191 Y-58.4377
G1 X56.8785 Y-58.4278
G1 X56.8372 Y-58.4219
G1 X56.798 Y-58.4201
G1 X54.0035 Y-58.4201
G1 X53.9594 Y-58.4224
G1 X53.9181 Y-58.4288
G1 X53.8777 Y-58.4391
G1 X53.8385 Y-58.4534
G1 X53.8052 Y-58.4692
G1 X53.7693 Y-58.4904
G1 X53.7357 Y-58.5151
G1 X53.7028 Y-58.5446
G1 X53.4974 Y-58.75
G1 X53.3651 Y-58.7501
G1 X53.3259 Y-58.752
G1 X53.2846 Y-58.7582
G1 X53.2441 Y-58.7683
G1 X53.2048 Y-58.7824
G1 X53.1671 Y-58.8002
G1 X53.1313 Y-58.8217
G1 X53.0978 Y-58.8465
G1 X53.0669 Y-58.8745
G1 X52.5514 Y-59.39
G1 X52.185 Y-59.39
G1 X52.1409 Y-59.3923
G1 X52.1045 Y-59.3977
G1 X52.064 Y-59.4076
G1 X52.0246 Y-59.4215
G1 X51.9825 Y-59.4414
G1 X51.9509 Y-59.4603
G1 X51.9271 Y-59.4777
G1 X51.8725 Y-59.4753
G1 X51.8089 Y-59.4786
G1 X51.7506 Y-59.4873
G1 X51.6887 Y-59.5025
G1 X51.624 Y-59.5257
G1 X51.5708 Y-59.5508
G1 X51.516 Y-59.5834
G1 X51.4608 Y-59.6243
G1 X51.4172 Y-59.6639
G1 X51.3841 Y-59.7
G1 X47.0446 Y-59.7
G1 X45.9942 Y-58.6495
G1 X45.9651 Y-58.6231
G1 X45.9277 Y-58.5954
G1 X45.8918 Y-58.5741
G1 X45.8539 Y-58.5565
